X: 7
T: King Of The Fairies
R: hornpipe
M: 4/4
L: 1/8
K: Edor
E>D E>F G>F G>A | B2 B2 G2-G>A | B2 E2 E>F (3GFE | F>G F>E D2 B2 |
E>D E>F G>F G>A | B>A G>B d2-d>c | B2 E2 G>F E>D | E4 B4 :|
|| e2 e2 B>d e>f | g>a g>f e2-e>f | e2 B2 B>A B>c | d>e d>c B>c (3dcB |
e2 e2 B>d e>f | g>a g>f e>f e>d | B>d e>g f>e (3def | e6 z>f |
g2-g>ef2-f>d | e>d B>c d2-d>e | d>B A>F G>A B>c | d>B A>F G>F E>D |
B>E E>D E>F G>A | B2 e2 e>d e>f | e2 B2 B>A G>F | E8 ||


Tune 475	Setting 25397

